images/hosts.svg

<svg xmlns:dc="http://purl.org/dc/elements/1.1/" xmlns:cc="http://creativecommons.org/ns#" xmlns:rdf="http://www.w3.org/1999/02/22-rdf-syntax-ns#" xmlns:svg="http://www.w3.org/2000/svg" xmlns="http://www.w3.org/2000/svg" xmlns:sodipodi="http://sodipodi.sourceforge.net/DTD/sodipodi-0.dtd" xmlns:inkscape="http://www.inkscape.org/namespaces/inkscape" version="1.1" width="38" height="40.34426228483018"><rect id="backgroundrect" width="100%" height="100%" x="0" y="0" fill="none" stroke="none" class=""/><g class="currentLayer"><title>Layer 1</title><g id="svg_1" class=""><path style="color:#000000;font-style:normal;font-variant:normal;font-weight:normal;font-stretch:normal;font-size:medium;line-height:normal;font-family:sans-serif;text-indent:0;text-align:start;text-decoration:none;text-decoration-line:none;text-decoration-style:solid;text-decoration-color:#000000;letter-spacing:normal;word-spacing:normal;text-transform:none;direction:ltr;block-progression:tb;writing-mode:lr-tb;baseline-shift:baseline;text-anchor:start;white-space:normal;clip-rule:nonzero;display:inline;overflow:visible;visibility:visible;opacity:1;isolation:auto;mix-blend-mode:normal;color-interpolation:sRGB;color-interpolation-filters:linearRGB;solid-color:#000000;solid-opacity:1;fill:#000000;fill-opacity:1;fill-rule:nonzero;stroke:none;stroke-width:0.99999982;stroke-linecap:butt;stroke-linejoin:miter;stroke-miterlimit:4;stroke-dasharray:none;stroke-dashoffset:0;stroke-opacity:1;color-rendering:auto;image-rendering:auto;shape-rendering:auto;text-rendering:auto;enable-background:accumulate" d="M19.0819673538208,0 C8.547996259752273,0 3.766264824492884e-15,8.54800421057197 0,19.0819673538208 C0,29.61593049706963 8.547996259752273,38.1639347076416 19.0819673538208,38.1639347076416 C29.6159392429713,38.1639347076416 38.1639347076416,29.61593049706963 38.1639347076416,19.0819673538208 C38.1639347076416,8.54800421057197 29.6159392429713,0 19.0819673538208,0 zM19.0819673538208,0.7950819730758667 C29.18624514144218,0.7950819730758667 37.368852734565735,8.977746017019527 37.368852734565735,19.0819673538208 C37.368852734565735,29.186268198819363 29.18624514144218,37.368852734565735 19.0819673538208,37.368852734565735 C8.977690361281395,37.368852734565735 0.7950819730758667,29.186268198819363 0.7950819730758667,19.0819673538208 C0.7950819730758667,8.977746017019527 8.977690361281395,0.7950819730758667 19.0819673538208,0.7950819730758667 zM15.106557488441467,6.360655784606934 L15.106557488441467,6.758196771144867 L15.106557488441467,16.6967214345932 L23.057377219200134,16.6967214345932 L23.057377219200134,6.360655784606934 L15.106557488441467,6.360655784606934 zM15.901639461517334,7.1557377576828 L22.262295246124268,7.1557377576828 L22.262295246124268,15.901639461517334 L15.901639461517334,15.901639461517334 L15.901639461517334,7.1557377576828 zM16.70448620514226,7.950819730758667 L16.70448620514226,8.745901703834534 L21.4672132730484,8.745901703834534 L21.4672132730484,7.950819730758667 L16.70448620514226,7.950819730758667 zM16.70448620514226,9.5409836769104 L16.70448620514226,10.336065649986267 L21.4672132730484,10.336065649986267 L21.4672132730484,9.5409836769104 L16.70448620514226,9.5409836769104 zM16.70448620514226,11.131147623062134 L16.70448620514226,11.926229596138 L21.4672132730484,11.926229596138 L21.4672132730484,11.131147623062134 L16.70448620514226,11.131147623062134 zM19.0819673538208,12.721311569213867 C18.428008455556036,12.721311569213867 17.889341213879106,13.259979605972774 17.889344394207,13.913934528827667 C17.889341213879106,14.56788945168256 18.428008455556036,15.106557488441467 19.0819673538208,15.106557488441467 C19.735926252085566,15.106557488441467 20.274593493762495,14.56788945168256 20.2745903134346,13.913934528827667 C20.274593493762495,13.259979605972774 19.735926252085566,12.721311569213867 19.0819673538208,12.721311569213867 zM19.0819673538208,13.516393542289734 C19.3062305603925,13.516393542289734 19.479509135440708,13.689721412420242 19.479508340358734,13.913934528827667 C19.479509135440708,14.13822715343238 19.3062305603925,14.3114755153656 19.0819673538208,14.3114755153656 C18.857704147249102,14.3114755153656 18.684425572200894,14.13822715343238 18.684426367282867,13.913934528827667 C18.684425572200894,13.689721412420242 18.857704147249102,13.516393542289734 19.0819673538208,13.516393542289734 zM18.684426367282867,17.491803407669067 L18.684426367282867,19.0819673538208 L9.938524663448334,19.0819673538208 L9.938524663448334,19.877049326896667 L9.938524663448334,21.4672132730484 L10.7336066365242,21.4672132730484 L10.7336066365242,19.877049326896667 L18.684426367282867,19.877049326896667 L18.684426367282867,21.4672132730484 L19.479508340358734,21.4672132730484 L19.479508340358734,19.877049326896667 L27.4303280711174,19.877049326896667 L27.4303280711174,21.4672132730484 L28.225410044193268,21.4672132730484 L28.225410044193268,19.479508340358734 L28.225410044193268,19.0819673538208 L19.479508340358734,19.0819673538208 L19.479508340358734,17.491803407669067 L18.684426367282867,17.491803407669067 zM6.758196771144867,22.262295246124268 L6.758196771144867,22.6598362326622 L6.758196771144867,27.827869057655334 L8.745901703834534,27.827869057655334 L8.745901703834534,29.418033003807068 L7.950819730758667,29.418033003807068 L7.950819730758667,30.213114976882935 L12.721311569213867,30.213114976882935 L12.721311569213867,29.418033003807068 L11.926229596138,29.418033003807068 L11.926229596138,27.827869057655334 L13.913934528827667,27.827869057655334 L13.913934528827667,22.262295246124268 L6.758196771144867,22.262295246124268 zM15.5040984749794,22.262295246124268 L15.5040984749794,22.6598362326622 L15.5040984749794,27.827869057655334 L17.491803407669067,27.827869057655334 L17.491803407669067,29.418033003807068 L16.6967214345932,29.418033003807068 L16.6967214345932,30.213114976882935 L21.4672132730484,30.213114976882935 L21.4672132730484,29.418033003807068 L20.672131299972534,29.418033003807068 L20.672131299972534,27.827869057655334 L22.6598362326622,27.827869057655334 L22.6598362326622,22.262295246124268 L15.5040984749794,22.262295246124268 zM24.250000178813934,22.262295246124268 L24.250000178813934,22.6598362326622 L24.250000178813934,27.827869057655334 L26.2377051115036,27.827869057655334 L26.2377051115036,29.418033003807068 L25.442623138427734,29.418033003807068 L25.442623138427734,30.213114976882935 L30.213114976882935,30.213114976882935 L30.213114976882935,29.418033003807068 L29.418033003807068,29.418033003807068 L29.418033003807068,27.827869057655334 L31.405737936496735,27.827869057655334 L31.405737936496735,22.262295246124268 L24.250000178813934,22.262295246124268 zM7.553278744220734,23.057377219200134 L13.1188525557518,23.057377219200134 L13.1188525557518,27.032787084579468 L7.553278744220734,27.032787084579468 L7.553278744220734,23.057377219200134 zM16.299180448055267,23.057377219200134 L21.864754259586334,23.057377219200134 L21.864754259586334,27.032787084579468 L16.299180448055267,27.032787084579468 L16.299180448055267,23.057377219200134 zM25.0450821518898,23.057377219200134 L30.610655963420868,23.057377219200134 L30.610655963420868,27.032787084579468 L25.0450821518898,27.032787084579468 L25.0450821518898,23.057377219200134 zM9.5409836769104,27.827869057655334 L11.131147623062134,27.827869057655334 L11.131147623062134,29.418033003807068 L9.5409836769104,29.418033003807068 L9.5409836769104,27.827869057655334 zM18.286885380744934,27.827869057655334 L19.877049326896667,27.827869057655334 L19.877049326896667,29.418033003807068 L18.286885380744934,29.418033003807068 L18.286885380744934,27.827869057655334 zM27.032787084579468,27.827869057655334 L28.6229510307312,27.827869057655334 L28.6229510307312,29.418033003807068 L27.032787084579468,29.418033003807068 L27.032787084579468,27.827869057655334 z" id="svg_2"/></g></g></svg>

<svg xmlns="http://www.w3.org/2000/svg" width="38" height="40.344"><rect id="backgroundrect" width="100%" height="100%" x="0" y="0" fill="none" stroke="none"/><g class="currentLayer"><g id="svg_1"><path style="line-height:normal;text-indent:0;text-align:start;text-decoration-line:none;text-decoration-style:solid;text-decoration-color:#000;text-transform:none;block-progression:tb;white-space:normal;isolation:auto;mix-blend-mode:normal;solid-color:#000;solid-opacity:1" d="M19.082 0C8.548 0 0 8.548 0 19.082s8.548 19.082 19.082 19.082 19.082-8.548 19.082-19.082S29.616 0 19.082 0zm0 .795c10.104 0 18.287 8.183 18.287 18.287s-8.183 18.287-18.287 18.287S.795 29.186.795 19.082 8.978.795 19.082.795zm-3.975 5.566v10.336h7.95V6.36h-7.95zm.795.795h6.36v8.746h-6.36V7.156zm.802.795v.795h4.763V7.95h-4.763zm0 1.59v.795h4.763v-.795h-4.763zm0 1.59v.795h4.763v-.795h-4.763zm2.378 1.59c-.654 0-1.193.539-1.193 1.193s.539 1.193 1.193 1.193 1.193-.54 1.193-1.193a1.2 1.2 0 00-1.193-1.193zm0 .795c.224 0 .398.174.398.398a.392.392 0 01-.398.397.392.392 0 01-.398-.397c0-.224.174-.398.398-.398zm-.398 3.976v1.59H9.94v2.385h.795v-1.59h7.95v1.59h.796v-1.59h7.95v1.59h.795v-2.385H19.48v-1.59h-.796zm-11.926 4.77v5.566h1.988v1.59H7.95v.795h4.77v-.795h-.795v-1.59h1.988v-5.566H6.758zm8.746 0v5.566h1.988v1.59h-.795v.795h4.77v-.795h-.795v-1.59h1.988v-5.566h-7.156zm8.746 0v5.566h1.988v1.59h-.795v.795h4.77v-.795h-.795v-1.59h1.988v-5.566H24.25zm-16.697.795h5.566v3.976H7.553v-3.976zm8.746 0h5.566v3.976h-5.566v-3.976zm8.746 0h5.566v3.976h-5.566v-3.976zm-15.504 4.77h1.59v1.591h-1.59v-1.59zm8.746 0h1.59v1.591h-1.59v-1.59zm8.746 0h1.59v1.591h-1.59v-1.59z" id="svg_2" color="#000" font-style="normal" font-variant="normal" font-weight="400" font-stretch="normal" font-size="medium" font-family="sans-serif" text-decoration="none" letter-spacing="normal" word-spacing="normal" direction="ltr" writing-mode="lr-tb" baseline-shift="baseline" text-anchor="start" clip-rule="nonzero" display="inline" overflow="visible" visibility="visible" opacity="1" color-interpolation="sRGB" color-interpolation-filters="linearRGB" fill="#000" fill-opacity="1" fill-rule="nonzero" stroke="none" stroke-width="1" stroke-linecap="butt" stroke-linejoin="miter" stroke-miterlimit="4" stroke-dasharray="none" stroke-dashoffset="0" stroke-opacity="1" color-rendering="auto" image-rendering="auto" shape-rendering="auto" text-rendering="auto"/></g></g></svg>
